X: 9122
T: Dad's
R: polka
M: 2/4
K: Gmajor
|:Bd cA|BG G2|DG DG|BA A2|Bd cA|BG G2|D2 EF|G4:|
|:Bd cA|Bc d2|DG DG|BA A2|Bd cA|Bc d2|D2 EF|G4:|

